X: 323
T: Eddie Moloney's Jig
M: 6/8
L: 1/8
R: jig
K: D
AG |: FAF EFE | F2D DAG | F3 EFE | DFA dAG |
(3FGAF EFE | F2D DFA | B2 d A2 d | F2B AFD :|
|: DFA dcd | ABF AFD | DFA d2A | Bcd ecA |
aff d2e | fdB BAF | B2d A2d | F2B AFD :|
